img/ut-round_icon.svg

<svg width="50" height="50" viewBox="0 0 50 50" fill="none" xmlns="http://www.w3.org/2000/svg">
<path fill-rule="evenodd" clip-rule="evenodd" d="M25 50C38.8071 50 50 38.8071 50 25C50 11.1929 38.8071 0 25 0C11.1929 0 0 11.1929 0 25C0 38.8071 11.1929 50 25 50Z" fill="#FF0000"/>
<path fill-rule="evenodd" clip-rule="evenodd" d="M25 17.8C22.102 17.8 18.3406 18.5294 18.3406 18.5294L18.3311 18.5403C17.0112 18.7523 16 19.8915 16 21.277V28.7217C16.0027 30.09 16.9937 31.2524 18.3379 31.4653L18.3406 31.4693C18.3406 31.4693 22.102 32.2 25 32.2C27.898 32.2 31.6594 31.4693 31.6594 31.4693C33.0065 31.2555 33.9986 30.0914 34 28.7231V21.277C33.998 19.9096 33.0068 18.7465 31.6621 18.5335C31.6594 18.5294 27.898 17.8 25 17.8ZM23.2 21.85L28.6 25L23.2 28.15V21.85Z" fill="white"/>
</svg>

<svg width="50" height="50" fill="none" xmlns="http://www.w3.org/2000/svg"><path fill-rule="evenodd" clip-rule="evenodd" d="M25 50c13.807 0 25-11.193 25-25S38.807 0 25 0 0 11.193 0 25s11.193 25 25 25Z" fill="red"/><path fill-rule="evenodd" clip-rule="evenodd" d="M25 17.8c-2.898 0-6.66.73-6.66.73l-.009.01A2.77 2.77 0 0 0 16 21.277v7.445a2.778 2.778 0 0 0 2.338 2.743l.003.004s3.761.731 6.659.731c2.898 0 6.66-.73 6.66-.73A2.78 2.78 0 0 0 34 28.722v-7.446a2.778 2.778 0 0 0-2.338-2.744C31.66 18.53 27.898 17.8 25 17.8Zm-1.8 4.05L28.6 25l-5.4 3.15v-6.3Z" fill="#fff"/></svg>
